src/images/crypto-icon-svg/fct.svg

<svg xmlns="http://www.w3.org/2000/svg" width="32" height="32" viewBox="0 0 32 32">
  <g fill="none" fill-rule="evenodd">
    <circle cx="16" cy="16" r="16" fill="#417BA4"/>
    <path fill="#FFF" fill-rule="nonzero" d="M7.68591742,10.6326036 C7.65329644,10.8553985 7.66233299,11.0087932 7.77966102,11.1260978 C7.62837717,11.3907918 7.51085135,11.5879832 7.39695201,11.8080487 C7.51085449,11.588467 7.62837919,11.3953398 7.77966102,11.1684623 C8.11864407,11.5921067 9.1779661,11.5921067 10.6186441,11.1260978 C10.7881356,11.0837334 10.7881356,11.4650134 10.7881356,11.4650134 C10.7881356,11.6768356 10.7457627,11.9733867 8.92372881,12.2275734 C8.41525424,12.3123023 7.69491525,12.2699378 7.3559322,11.8886578 C7.27118644,11.7615645 7.22881356,11.5921067 7.22881356,11.3802845 C7.22881356,11.33792 7.22881356,11.2955556 7.27118644,11.2108267 C7.27271183,11.2082849 7.27424332,11.2057431 7.27578076,11.2032013 C7.28785305,11.1351357 7.32189262,11.0670701 7.3559322,10.9990045 C7.39830508,10.8719111 7.48305085,10.7871823 7.56779661,10.6600889 C7.52542373,10.7448178 7.44067797,10.9142756 7.3559322,10.9990045 C7.39830508,10.8719111 7.48305085,10.7448178 7.56779661,10.6600889 Z M7.94003602,10.0880932 C8.0023026,9.99632879 8.06923429,9.90456441 8.16101695,9.81280003 L8.03389831,9.98225781 C8.02644929,9.98970534 8.01900027,9.99739836 8.01155485,10.0053189 C8.05664569,9.94202433 8.10597094,9.87884209 8.16101695,9.81280003 L8.03389831,9.98225781 C8.00252127,10.0136286 7.97114423,10.049355 7.94003602,10.0880932 Z M7.94003602,10.0880932 C7.88731729,10.1657866 7.83794267,10.24348 7.77966102,10.3211734 C7.77441183,10.3264215 7.76916264,10.3319947 7.76391345,10.3378527 C7.72816552,10.3936752 7.69361458,10.4501086 7.6607615,10.5046492 Z M8.84148183,9.07328446 C8.96776755,8.96659851 9.09405327,8.84838434 9.22033898,8.75368891 C9.09322034,8.92314669 9.00847458,9.09260447 8.96610169,9.26206225 C8.92372881,9.38915558 8.92372881,9.51624892 9.00847458,9.60097781 C9.00068963,9.6087612 8.99296189,9.6165446 8.98528717,9.6243301 C9.26460793,9.93564535 10.1806229,9.84313236 11.3389831,9.34679114 C11.720339,9.17733336 12.1016949,9.00787558 12.440678,8.79605335 C12.5677966,8.75368891 12.7372881,8.96551113 12.779661,9.00787558 C12.8220339,9.05024002 12.8644068,9.17733336 12.779661,9.26206225 C12.3559322,9.51624892 11.8898305,9.77043558 11.3813559,9.93989336 C9.92482388,10.5639971 8.75438931,10.6568827 8.43201566,10.2586825 C8.42645724,10.265362 8.42087063,10.2720706 8.41525424,10.2788089 C8.37288136,10.1517156 8.33050847,10.0669867 8.37288136,9.89752892 C8.37288136,9.85516447 8.37288136,9.81280003 8.41525424,9.77043558 C8.45072802,9.72314662 8.49280136,9.67585766 8.53963257,9.6285687 C8.48087589,9.68680683 8.4248842,9.74780941 8.37288136,9.81280003 C8.37288136,9.77043558 8.41525424,9.68570669 8.41525424,9.64334225 C8.5,9.47388447 8.58474576,9.34679114 8.71186441,9.17733336 C8.74112588,9.15539162 8.77038736,9.13218719 8.79964884,9.10815605 C8.92845269,8.92731786 9.11676872,8.77250966 9.30508475,8.58423113 C9.6440678,8.28768002 9.6440678,8.28768002 9.81355932,8.16058668 C9.85755244,8.11660233 9.89139549,8.08784004 9.93089574,8.06025171 C9.91755692,8.0715948 9.90336397,8.08370514 9.88820789,8.09666197 C10.007544,8.00688297 10.1323323,7.91803391 10.2617404,7.83063483 C10.2675028,7.827749 10.2734688,7.82476661 10.279661,7.82167112 C10.3031613,7.80488856 10.3247996,7.78943566 10.3447868,7.77516496 C10.9242513,7.39236318 11.5902127,7.0399385 12.2711864,6.76256001 C12.3811489,6.70148191 12.4911114,6.64744846 12.6010738,6.59944402 C12.5359527,6.6245949 12.4835204,6.64784614 12.4226153,6.67448709 C12.3873687,6.68838815 12.3556882,6.70207646 12.3209448,6.71820306 C12.2627503,6.74262075 12.1929765,6.77070066 12.1016949,6.80492445 C11.9322034,6.8472889 11.9322034,6.8472889 11.5932203,7.01674667 C11.4237288,7.10147556 11.4237288,7.10147556 11.1271186,7.27093334 C11,7.35566223 11,7.35566223 10.7033898,7.52512001 C10.5863427,7.60313587 10.5770691,7.60931703 10.3447868,7.77516496 C13.1191368,6.40973738 12.9243927,6.4690355 12.7296486,6.54600177 C12.507013,6.61390448 12.268309,6.70021204 12.0169492,6.80492445 C11.0347294,7.22579195 10.1105919,7.82087143 9.53304415,8.37382534 C9.44625174,8.44309224 9.4052887,8.48404713 9.30508475,8.58423113 C9.35948085,8.53304499 9.41605163,8.48185884 9.47465109,8.43076392 C9.37864629,8.52615291 9.29337333,8.6200497 9.22033898,8.71132446 C9.08720856,8.84442838 8.95407814,8.95139503 8.84148183,9.07328446 Z M6.43388638,18.903653 C6.44462482,18.9394261 6.45536326,18.9736756 6.46610169,19.0058845 C6.50847458,19.1329779 6.55084746,19.2177068 6.63559322,19.3024357 C6.5614185,19.0799558 6.48724379,18.857476 6.41306907,18.6065898 C6.40907314,18.8822462 6.4918614,19.1228066 6.63559322,19.3024357 C6.55084746,19.048249 6.46610169,18.7940623 6.42372881,18.4975112 C7.18644068,19.5566223 10.0677966,19.3024357 13.7542373,17.7349512 C18.4576271,15.7438223 22.7372881,12.3546667 23.3305085,10.1517156 C23.4576271,9.60097781 23.3728814,9.2196978 23.0762712,8.92314669 C23.2881356,9.13496891 23.5,9.38915558 23.7118644,9.60097781 C23.9661017,9.89752892 24.0084746,10.2788089 23.8813559,10.7871823 C23.2881356,13.0324978 18.9237288,16.4640179 14.0932203,18.4975112 C9.89855844,20.3226025 6.73631655,20.4036072 6.43388638,18.903653 C6.35987905,18.6571118 6.28587173,18.338209 6.21186441,18.1162312 C6.25423729,18.2433245 6.29661017,18.3704179 6.38135593,18.4975112 C6.38999631,18.5277465 6.39863668,18.5575414 6.40727705,18.5869408 C6.4045298,18.6422606 6.40710236,18.6949209 6.41307447,18.7458818 C6.40994627,18.6987735 6.40932935,18.6503109 6.41126979,18.6004984 C6.40993888,18.5959885 6.40860796,18.5914693 6.40727705,18.5869408 C6.40937467,18.5447023 6.41457367,18.5009134 6.42372881,18.4551468 C6.41457367,18.5009134 6.40937467,18.5447023 6.40727705,18.5869408 Z M13.3138809,6.3624658 C13.331787,6.35535003 13.3512276,6.34757533 13.3728814,6.33891556 C14.6440678,6 15.4491525,6.16945778 15.279661,6.88965334 C15.2372881,7.14384001 15.0677966,7.39802668 14.8135593,7.65221335 C14.6016949,7.73694224 14.1355932,7.65221335 14.0508475,7.56748446 C14.2627119,7.31329779 14.3898305,7.10147556 14.4322034,6.93201778 C14.5638832,6.37249018 13.9538631,6.22209477 12.9598061,6.48083156 C12.9450972,6.48611509 12.9306348,6.49146784 12.9157135,6.49712484 Z M13.2368288,6.3925285 C13.286621,6.37749786 13.3451361,6.35994682 13.4152542,6.33891556 C13.3814631,6.3464232 13.347672,6.35426345 13.3138809,6.3624658 Z M6.21166607,17.4076707 C6.21179648,17.4179781 6.21186441,17.4282231 6.21186441,17.4384001 C6.09200077,17.3185603 6.0474856,17.1610538 6.04279482,16.9658806 C6.03203912,16.8853784 6.02944838,16.8004196 6.03530017,16.7110311 C6.03952244,16.7896227 6.04237288,16.8640995 6.04237288,16.9300267 C6.04237288,16.9378279 6.04243035,16.9455717 6.04254742,16.9532579 C6.03136764,16.8713597 6.02811941,16.7869202 6.03480689,16.7019432 C6.02262118,16.47967 6,16.2260967 6,16.0403734 C6,16.2945601 6.08474576,16.4640179 6.16949153,16.6334756 C6.16949153,16.760569 6.18008475,16.8982534 6.19067797,17.0359379 C6.16949153,16.8982534 6.16949153,16.760569 6.16949153,16.6334756 C9.00847458,19.6413512 21.7627119,11.8462934 21.8898305,8.54186669 C21.9322034,7.94876446 21.5932203,7.73694224 21.4237288,7.6098489 L21.7627119,7.82167112 L22.1864407,8.11822224 C22.5254237,8.41477335 22.6525424,8.8384178 22.5254237,9.38915558 C21.9745763,11.5073778 17.8220339,14.7694401 13.2881356,16.6758401 C9.697061,18.2246227 6.92505174,18.4280658 6.21166607,17.4076707 Z M6.19067797,14.1763378 L6.25423729,13.9221512 C6.16949153,14.2610667 6.21186441,14.5576178 6.38135593,14.7270756 C6.38026147,14.7303584 6.37917407,14.7336482 6.37809375,14.7369448 C6.46109357,14.8361275 6.57517531,14.9086949 6.72033898,14.9812623 C6.84745763,15.1507201 6.76271186,15.5743645 6.76271186,15.5743645 C6.72033898,15.7014579 6.6779661,15.8709156 6.59322034,15.8285512 C6.16949153,15.616729 6,15.2778134 6.04237288,14.7694401 C6,15.0659912 6.08474576,15.3201778 6.21186441,15.4896356 C6.21319906,15.4816293 6.21453371,15.473581 6.21586835,15.4654933 C6.11079409,15.2749791 6.0468011,15.0773643 6.08474576,14.8118045 L6.10165276,14.7019309 C6.09266292,14.7385554 6.08474576,14.77518 6.08474576,14.8118045 L6.16949153,14.2187023 L6.25423729,13.8797867 C6.25423729,13.8374223 6.25423729,13.8374223 6.25423729,13.7950578 C6.23305085,13.9221512 6.21186441,14.0492445 6.19067797,14.1763378 Z M6.81281241,13.1364128 C6.73233134,13.3224624 6.66439079,13.4952135 6.63559322,13.6679645 C6.50847458,13.4985067 6.46610169,13.2866845 6.50847458,13.0324978 C6.50847458,12.9477689 6.50847458,12.9054045 6.55084746,12.8206756 C6.63559322,12.5664889 6.72033898,12.3546667 6.84745763,12.10048 C6.76271186,12.3970312 6.80508475,12.6512178 6.93220339,12.8630401 C6.92311356,12.8842454 6.91402373,12.9052342 6.90496489,12.9260218 C7.43600506,13.6222439 9.37160184,13.4459137 11.8474576,12.3970312 C15.0254237,10.9990045 17.9491525,8.71132446 18.3305085,7.27093334 C18.4576271,6.72019556 18.2881356,6.38128 17.8220339,6.21182222 C17.9067797,6.16945778 17.9067797,6.16945778 18.1610169,6.25418667 C18.3305085,6.29655111 18.4576271,6.33891556 18.5423729,6.33891556 C19.0932203,6.55073778 19.3050847,6.93201778 19.1355932,7.52512001 C18.7118644,9.13496891 15.5338983,11.6344712 12.059322,13.1172267 C9.30508475,14.2610667 7.18644068,14.472889 6.63559322,13.6679645 L6.81281241,13.1364128 Z M13.3508232,25.346007 C12.8419544,25.3633518 12.4199504,25.3104155 12.1016949,25.1910935 C11.8474576,25.0640001 11.5084746,24.9369068 11.2966102,24.8098135 C11.8138203,25.0242237 12.4915819,25.0771758 13.2723138,25.0001093 C13.2729616,24.9511591 13.2782355,24.9016685 13.2881356,24.8521779 C13.2793528,24.904864 13.2742109,24.9539099 13.2727099,25.0000702 C17.73694,24.5591719 25.5672275,19.8677949 26,16.8029334 L25.9576271,16.9300267 C25.9152542,17.1842134 25.8728814,17.4807645 25.8728814,17.6925868 C25.8728814,17.7349512 25.8728814,17.7773156 25.8305085,17.8196801 C25.3220339,19.6413512 21.720339,22.479769 17.779661,24.1743468 C16.004849,24.9306735 14.4697757,25.3074893 13.3527756,25.3459401 C13.3706322,25.3803527 13.3914584,25.4135587 13.4152542,25.4452801 C13.3905858,25.4123955 13.3691088,25.3795108 13.3508232,25.346007 Z M13.8470786,23.6040445 C13.8724787,23.5682515 13.8981038,23.5323836 13.9237288,23.4965157 C13.8982387,23.5321947 13.873362,23.5678737 13.8490987,23.6034789 C14.4918253,23.4234835 15.1839484,23.1899492 15.9152542,22.9034135 C16.3813559,22.7763201 16.5508475,23.0728712 16.5508475,23.0728712 C16.5932203,23.1152357 16.5932203,23.2846935 16.3389831,23.4117868 C15.2747627,23.8281379 14.2947533,24.1266173 13.433694,24.3072249 C13.4274514,24.3195111 13.4213048,24.3317058 13.4152542,24.3438046 C13.4191514,24.3321154 13.4233174,24.3203366 13.4277399,24.3084723 C11.9261567,24.6226825 10.7870197,24.577974 10.1949153,24.1743468 C9.98305085,24.004889 9.68644068,23.7930668 9.47457627,23.623609 C10.1566566,24.2081329 11.7350236,24.1952513 13.8470786,23.6040445 Z M8.54237288,22.6915912 C8.37288136,22.479769 8.16101695,22.2679468 8.03389831,22.0561246 C8.20338983,22.2679468 8.45762712,22.5644979 8.62711864,22.7763201 C8.62711864,22.7339557 8.58474576,22.6915912 8.54237288,22.6915912 Z M15.279661,6.04236444 C15.5338983,6.04236444 15.8728814,6 16.1271186,6 C17.0169492,6 17.440678,6.33891556 17.2711864,7.01674667 C17.059322,7.82167112 15.9152542,8.96551113 14.4322034,9.98225781 C14.1355932,10.1093511 13.8389831,9.72807114 13.9237288,9.55861336 C13.9237288,9.51624892 13.9661017,9.51624892 13.9661017,9.51624892 C15.279661,8.62659558 16.2542373,7.65221335 16.4661017,6.93201778 C16.6355932,6.25418667 16.0847458,5.95763556 15.1101695,6.04236444 L15.279661,6.04236444 Z M20.3644068,7.01674667 C20.8728814,7.27093334 21.0847458,7.69457779 20.9152542,8.33004446 C20.4067797,10.2364445 16.6779661,13.1595912 12.6101695,14.8965334 C11.8474576,15.235449 11.0847458,15.4896356 10.4067797,15.7014579 C10.0254237,15.7438223 9.98305085,15.235449 10.1525424,14.9812623 C10.1949153,14.8965334 10.2372881,14.8965334 10.279661,14.854169 C10.9152542,14.6847112 11.5932203,14.4305245 12.3135593,14.1339734 C16.1694915,12.48176 19.6864407,9.68570669 20.1525424,7.90640001 C20.3220339,7.27093334 20.0677966,6.8472889 19.5169492,6.63546667 C19.7711864,6.76256001 20.1101695,6.88965334 20.3644068,7.01674667 Z M24.7711864,11.2108267 L24.8983051,11.4226489 C25.0254237,11.7615645 25.0254237,11.7615645 25.0254237,11.9310223 L25.0254237,11.9733867 C24.8983051,11.9310223 24.6440678,11.4226489 24.6016949,11.2108267 C24.6016949,10.95664 24.559322,10.7871823 24.4322034,10.6177245 L24.7711864,11.2108267 Z M25.6610169,13.4561423 C25.7033898,13.6679645 25.7033898,13.9221512 25.6186441,14.2187023 C25.1101695,16.0827379 21.9322034,18.8364268 18.0762712,20.8275557 C17.6525424,20.9970134 17.3983051,20.7004623 17.4830508,20.4039112 C17.5254237,20.2768179 17.6101695,20.192089 17.6949153,20.1497246 C21.5932203,18.1162312 24.8559322,15.3201778 25.3644068,13.4137778 C25.4491525,13.0748623 25.4491525,12.7783112 25.3644068,12.5241245 C25.4915254,12.8630401 25.6186441,13.2019556 25.6610169,13.4561423 Z M25.9576271,15.235449 L25.9576271,15.5743645 C25.9576271,15.7438223 25.9576271,15.8709156 25.9152542,16.0827379 C25.6186441,17.2265779 24.220339,18.7093334 22.3135593,20.1497246 C22.0169492,20.3615468 21.8474576,20.0649957 21.8898305,19.8531734 C21.9322034,19.6837157 22.059322,19.5566223 22.1016949,19.5142579 C24.0932203,18.0315023 25.5338983,16.5063823 25.8305085,15.3201778 C25.8728814,15.1083556 25.9152542,14.8965334 25.8728814,14.6847112 L25.9576271,15.235449 Z M8.41525424,10.2788089 C8.37288136,10.1517156 8.33050847,10.0669867 8.37288136,9.89752892 C8.33050847,10.0669867 8.37288136,10.1517156 8.41525424,10.2788089 Z M7.3559322,11.8886578 C7.27118644,11.7615645 7.22881356,11.5921067 7.22881356,11.3802845 C7.22881356,11.5921067 7.22881356,11.7192 7.3559322,11.8886578 Z M6.63559322,13.6679645 C6.50847458,13.4985067 6.46610169,13.2866845 6.50847458,13.0324978 C6.46610169,13.2866845 6.50847458,13.4985067 6.63559322,13.6679645 Z M22.6101695,15.1507201 C22.6949153,15.4049067 22.6101695,15.5743645 22.5254237,15.7014579 C20.6610169,17.3960356 17.9067797,19.0906134 15.0254237,20.3191823 C10.7457627,22.098489 7.52542373,22.2255823 7.22881356,20.7004623 C7.18644068,20.573369 7.22881356,20.6580979 7.27118644,20.6157334 C7.27118644,20.6580979 7.27118644,20.8699201 7.44067797,21.1241068 C7.39830508,21.0393779 7.3559322,20.9970134 7.31355932,20.9122846 C7.27118644,20.8699201 7.27118644,20.8275557 7.22881356,20.7851912 C7.1440678,20.6580979 7.10169492,20.4886401 7.01694915,20.3615468 C7.8220339,21.4206579 10.7881356,21.2088357 14.6016949,19.5566223 C17.4830508,18.3280534 20.2372881,16.5911112 22.1016949,14.9388978 C22.440678,14.7694401 22.5677966,15.0236267 22.6101695,15.1507201 Z M11.8898305,22.9034135 C11.9322034,22.9881424 11.9745763,23.1576001 11.8050847,23.1999646 C10.279661,23.4541512 9.1779661,23.3270579 8.66949153,22.7763201 C8.5,22.5644979 8.24576271,22.2679468 8.07627119,22.0561246 C8.54237288,22.6492268 9.68644068,22.8186846 11.3389831,22.5644979 C11.6355932,22.5644979 11.8474576,22.8186846 11.8898305,22.9034135 Z M25.2372881,19.810809 C25.3644068,19.5566223 25.4915254,19.1753423 25.5762712,18.9211557 C25.0677966,20.573369 21.8050847,23.1152357 18.2457627,24.6403557 C16.0423729,25.5723735 14.220339,25.911289 13.2457627,25.6147379 C13.5,25.6994668 13.8813559,25.7841957 14.1779661,25.8265602 C16.8898305,26.2502046 23.7542373,22.861049 25.2372881,19.810809 Z M23.0338983,22.861049 C23.0338983,22.9034135 22.9491525,23.0305068 22.779661,23.1576001 C21.8474576,23.9201601 20.5762712,24.6827201 19.2627119,25.2334579 C18.1610169,25.6994668 17.1864407,25.9536535 16.4661017,25.9960179 C16.1694915,25.9960179 15.7457627,25.9960179 15.4067797,25.9960179 C16.2542373,26.0383824 17.4830508,25.7418313 18.9661017,25.148729 C20.4491525,24.5132624 21.8898305,23.6659735 22.9491525,22.7763201 C22.9915254,22.7763201 22.9915254,22.7339557 23.0338983,22.7339557 C23.0338983,22.7339557 23.0338983,22.7763201 23.0762712,22.7763201 C23.0762712,22.7763201 23.0762712,22.8186846 23.0338983,22.861049 Z M6.50847458,12.8630401 C6.50847458,12.8206756 6.55084746,12.7359467 6.55084746,12.6935823 C6.63559322,12.4393956 6.80508475,12.0581156 6.88983051,11.8039289 C6.88983051,11.9310223 6.84745763,12.0157512 6.80508475,12.1428445 C6.6779661,12.3546667 6.59322034,12.6088534 6.50847458,12.8630401 Z"/>
  </g>
</svg>

<svg xmlns="http://www.w3.org/2000/svg" width="32" height="32"><g fill="none" fill-rule="evenodd"><circle cx="16" cy="16" r="16" fill="#417BA4"/><path fill="#FFF" fill-rule="nonzero" d="M7.686 10.633c-.033.222-.024.376.094.493-.152.265-.27.462-.383.682.114-.22.231-.413.383-.64.339.424 1.398.424 2.839-.042.17-.042.17.339.17.339 0 .212-.043.508-1.865.763-.509.084-1.23.042-1.568-.34-.085-.126-.127-.296-.127-.508 0-.042 0-.084.042-.17a2.56 2.56 0 0 1 .005-.007.788.788 0 0 1 .08-.204c.042-.127.127-.212.212-.339-.043.085-.127.254-.212.339a.922.922 0 0 1 .212-.339zm.254-.545c.062-.092.13-.183.221-.275l-.127.17a1.036 1.036 0 0 0-.022.022c.045-.063.094-.126.149-.192l-.127.17a1.31 1.31 0 0 0-.094.105zm0 0c-.053.078-.102.155-.16.233a.419.419 0 0 0-.016.017 7.17 7.17 0 0 0-.103.167zm.901-1.015c.127-.106.253-.225.38-.32-.128.17-.213.34-.255.51-.042.126-.042.253.042.338a4.529 4.529 0 0 0-.023.023c.28.312 1.196.22 2.354-.277.381-.17.763-.34 1.102-.55.127-.043.296.169.339.21.042.043.084.17 0 .255-.424.254-.89.508-1.399.678-1.456.624-2.627.717-2.949.319l-.017.02c-.042-.127-.084-.212-.042-.381 0-.043 0-.085.042-.128a1.39 1.39 0 0 1 .125-.141 2.16 2.16 0 0 0-.167.184c0-.043.042-.127.042-.17.085-.17.17-.296.297-.466.03-.022.058-.045.088-.069.128-.18.317-.335.505-.524.34-.296.34-.296.509-.423a.83.83 0 0 1 .117-.1 21.62 21.62 0 0 0-.043.036c.12-.09.244-.179.374-.266l.018-.01.065-.046c.58-.383 1.245-.735 1.926-1.012.11-.062.22-.116.33-.164-.065.026-.117.049-.178.075a6.001 6.001 0 0 1-.32.13c-.17.043-.17.043-.51.213-.17.084-.17.084-.466.254-.127.085-.127.085-.424.254-.117.078-.126.084-.358.25 2.774-1.365 2.58-1.306 2.385-1.229a7.724 7.724 0 0 0-.713.259c-.982.42-1.906 1.016-2.484 1.569-.087.07-.128.11-.228.21.054-.051.111-.102.17-.153a3.35 3.35 0 0 0-.255.28c-.133.133-.266.24-.379.362zm-2.407 9.83c.01.036.021.07.032.103a.683.683 0 0 0 .17.296c-.075-.222-.149-.445-.223-.695-.004.275.079.516.223.695-.085-.254-.17-.508-.212-.804.762 1.059 3.644.804 7.33-.763 4.704-1.991 8.983-5.38 9.577-7.583.127-.551.042-.932-.255-1.229.212.212.424.466.636.678.254.297.296.678.17 1.186-.594 2.245-4.958 5.677-9.789 7.71-4.194 1.826-7.357 1.907-7.66.407-.073-.247-.147-.566-.221-.788.042.127.085.254.17.382l.025.089a.952.952 0 0 0 .006.159 1.382 1.382 0 0 1-.002-.146 12.671 12.671 0 0 1-.004-.013zm6.88-12.54l.059-.024c1.271-.339 2.076-.17 1.907.55-.043.255-.212.509-.466.763-.212.085-.678 0-.763-.085.212-.254.339-.466.381-.635.132-.56-.478-.71-1.472-.451l-.044.016zm-.077.03l.178-.054a5.335 5.335 0 0 0-.101.023zM6.212 17.408v.03c-.12-.12-.165-.277-.17-.472a1.287 1.287 0 0 1-.007-.255 4.192 4.192 0 0 1 .008.242 1.177 1.177 0 0 1-.008-.251C6.023 16.48 6 16.226 6 16.04c0 .255.085.424.17.593 0 .128.01.265.02.403-.02-.138-.02-.275-.02-.403 2.838 3.008 15.593-4.787 15.72-8.091.042-.593-.297-.805-.466-.932l.339.212.423.296c.34.297.467.72.34 1.271-.551 2.118-4.704 5.38-9.238 7.287-3.59 1.549-6.363 1.752-7.076.732zm-.021-3.232l.063-.254c-.085.34-.042.636.127.805a2.028 2.028 0 0 0-.003.01c.083.1.197.172.342.244.127.17.043.593.043.593-.043.127-.085.297-.17.255-.424-.212-.593-.551-.55-1.06a.97.97 0 0 0 .169.72l.004-.024a.983.983 0 0 1-.131-.653l.017-.11a.465.465 0 0 0-.017.11l.084-.593.085-.34v-.084l-.063.381zm.622-1.04a2.34 2.34 0 0 0-.177.532c-.128-.17-.17-.381-.128-.636 0-.084 0-.127.043-.211.085-.255.17-.466.296-.72a.93.93 0 0 0 .085.762l-.027.063c.531.696 2.467.52 4.942-.529 3.178-1.398 6.102-3.686 6.484-5.126.127-.55-.043-.89-.509-1.06.085-.042.085-.042.339.043.17.043.297.085.381.085.551.212.763.593.594 1.186-.424 1.61-3.602 4.11-7.077 5.592-2.754 1.144-4.873 1.356-5.423.551l.177-.532zm6.538 12.21c-.509.017-.931-.036-1.25-.155-.254-.127-.593-.254-.804-.381.517.214 1.195.267 1.975.19 4.465-.44 12.295-5.132 12.728-8.197l-.042.127c-.043.254-.085.55-.085.763 0 .042 0 .084-.042.127-.509 1.821-4.11 4.66-8.051 6.354-1.775.757-3.31 1.133-4.427 1.172a.712.712 0 0 0-.002 0zm.496-1.742l.077-.107c-.026.035-.05.07-.075.106.643-.18 1.335-.413 2.066-.7.466-.127.636.17.636.17.042.042.042.212-.212.339-1.064.416-2.044.715-2.905.895a6.423 6.423 0 0 0-.019.037l.013-.036c-1.502.315-2.641.27-3.233-.134-.212-.17-.509-.38-.72-.55.682.584 2.26.571 4.372-.02zm-5.305-.912c-.17-.212-.381-.424-.508-.636.17.212.424.508.593.72a.091.091 0 0 0-.085-.084zm6.738-16.65c.254 0 .593-.042.847-.042.89 0 1.314.339 1.144 1.017-.212.805-1.356 1.949-2.839 2.965-.296.127-.593-.254-.508-.423 0-.043.042-.043.042-.043 1.314-.89 2.288-1.864 2.5-2.584.17-.678-.381-.974-1.356-.89h.17zm5.084.975c.509.254.72.678.551 1.313-.508 1.906-4.237 4.83-8.305 6.567-.763.338-1.525.593-2.203.804-.382.043-.424-.466-.254-.72.042-.084.084-.084.127-.127.635-.17 1.313-.423 2.034-.72 3.855-1.652 7.372-4.448 7.839-6.228.169-.635-.085-1.059-.636-1.27.254.127.593.254.847.38zm4.407 4.194l.127.212c.127.339.127.339.127.508v.042c-.127-.042-.38-.55-.423-.762 0-.254-.043-.424-.17-.593l.34.593zm.89 2.245c.042.212.042.466-.042.763-.509 1.864-3.687 4.617-7.543 6.609-.423.169-.678-.128-.593-.424a.434.434 0 0 1 .212-.254c3.898-2.034 7.16-4.83 7.67-6.736.084-.34.084-.636 0-.89.127.339.254.678.296.932zm.297 1.78v.338c0 .17 0 .297-.043.509-.296 1.144-1.695 2.626-3.601 4.067-.297.212-.467-.085-.424-.297a.772.772 0 0 1 .212-.339c1.991-1.482 3.432-3.008 3.729-4.194.042-.212.084-.423.042-.635l.085.55zM8.415 10.278c-.042-.127-.084-.212-.042-.381-.042.169 0 .254.042.38zm-1.06 1.61c-.084-.127-.126-.297-.126-.509 0 .212 0 .34.127.509zm-.72 1.779c-.127-.17-.169-.381-.127-.636-.042.255 0 .467.128.636zm15.975 1.483a.58.58 0 0 1-.085.55c-1.864 1.695-4.618 3.39-7.5 4.618-4.28 1.78-7.5 1.907-7.796.381-.043-.127 0-.042.042-.084 0 .042 0 .254.17.508-.043-.085-.085-.127-.127-.212-.043-.042-.043-.084-.085-.127-.085-.127-.127-.296-.212-.423.805 1.059 3.771.847 7.585-.805 2.881-1.229 5.635-2.966 7.5-4.618.339-.17.466.085.508.212zm-10.72 7.752c.042.085.085.255-.085.297-1.525.254-2.627.127-3.136-.424-.169-.212-.423-.508-.593-.72.466.593 1.61.763 3.263.508.297 0 .508.255.55.34zm13.347-3.092c.127-.254.255-.636.34-.89-.51 1.652-3.772 4.194-7.331 5.72-2.204.931-4.026 1.27-5 .974.254.084.635.17.932.212 2.712.423 9.576-2.966 11.06-6.016zm-2.203 3.05c0 .042-.085.17-.254.297-.933.762-2.204 1.525-3.517 2.075-1.102.466-2.077.72-2.797.763h-1.06c.848.042 2.077-.254 3.56-.847 1.483-.636 2.924-1.483 3.983-2.373.043 0 .043-.042.085-.042 0 0 0 .042.042.042 0 0 0 .043-.042.085zM6.508 12.863c0-.042.043-.127.043-.17.085-.254.254-.635.339-.89 0 .128-.043.213-.085.34-.127.212-.212.466-.297.72z"/></g></svg>
